svg/u1f693.svg

<svg viewBox="0 0 128 128" xmlns="http://www.w3.org/2000/svg">
  <path d="M26.84,69.43c-0.77,0.11-15.41,2.86-18.16,4.84c-2.75,1.98-3.98,3.98-4.53,6.95 c-0.55,2.97,3.54,6.04,3.54,6.04l30.16,2.86l31.26-4.95l45.79,3.85l10.51-6.44c0,0-0.39-7.5-3.03-9.81 c-2.64-2.31-9.33-3.01-11.42-4.22c-2.09-1.21-7.08-10.7-13.34-15.86c-7.49-6.16-17.9-6.59-26.48-6.49 c-9.58,0.11-16.14,0.8-18.78,1.79c-4.07,1.54-7.02,3.04-10.77,5.91C35.85,58.3,26.84,69.43,26.84,69.43z" fill="#E3E3E1"/>
  <path d="M8.79,83.19l-4.84-0.22c0,0-0.66,8.04-0.77,14.2c-0.11,6.27-0.33,9.03,2.31,11.45 c1.74,1.6,4.91,2.32,10.08,2.21s101.54,0.44,103.97,0.33c2.42-0.11,4.62-1.54,5.06-5.28c0.44-3.74,0.99-17.94,0.99-17.94l-5.5-5.72 L8.79,83.19z" fill="#474C4F"/>
  <path d="M49.59,110.91c0,0-0.16-18.18-17.05-17.89c-18.37,0.31-16.98,17.81-16.98,17.81L49.59,110.91z" fill="#2F2F2F"/>
  <path d="M84.85,111.07c0,0,0.29-18.55,17.36-17.95c17.75,0.62,16.35,18.06,16.35,18.06L84.85,111.07z" fill="#2F2F2F"/>
  <path d="M17.81,110.34c0.09,5.52,4.49,13.46,14.07,13.52c9.58,0.06,14.55-7.28,14.25-14.8 c-0.31-7.64-6.25-13.04-14.8-12.8C23.33,96.5,17.69,102.7,17.81,110.34z" fill="#4E433D"/>
  <path d="M24.48,109.88c0.05,2.91,2.41,7.1,7.56,7.13c5.15,0.03,7.64-3.62,7.48-7.58 c-0.17-4.03-3.46-7.03-7.78-6.97C27.44,102.53,24.41,105.85,24.48,109.88z" fill="#C8C8C8"/>
  <path d="M88.53,110.81c0.09,5.48,4.39,13.36,13.77,13.42c9.38,0.06,14.24-7.22,13.95-14.68 c-0.3-7.59-6.11-12.94-14.48-12.7C93.94,97.07,88.41,103.22,88.53,110.81z" fill="#4E433D"/>
  <path d="M94.79,110.37c0.05,2.91,2.41,7.1,7.56,7.13c5.15,0.03,7.64-3.62,7.48-7.58 c-0.17-4.03-3.46-7.03-7.78-6.97C97.76,103.02,94.73,106.34,94.79,110.37z" fill="#C8C8C8"/>
  <path d="M4.09,81.2c0,0,10.01-0.67,10.53,0.12c0.29,0.44-2.06,8.84-2.77,9.4c-1.31,1.05-8.64,3.32-8.64,3.32 s-0.02-4.96,0.26-7.86C3.77,83.21,4.09,81.2,4.09,81.2z" fill="#FDA431"/>
  <path d="M120.03,78.14c-0.52,0.52-0.18,3.05,0,6.47c0.13,2.38,0.18,5.49,0.98,5.68 c0.79,0.18,4.64,0.12,4.64,0.12s0.12-3.11-0.06-6.53c-0.17-3.24-0.73-5.8-0.73-5.8S120.52,77.65,120.03,78.14z" fill="#FF2A23"/>
  <path d="M98.84,74.62c0.49-0.24,6.2-5.63,6.28-6.2c0.08-0.57-5.87-10.85-12.89-14.52 c-7.01-3.67-11.82-3.99-19.72-4.23c-8.15-0.25-19.91,0.65-27.17,5.95c-5.52,4.03-12.72,13.86-13.7,15.17s-0.24,3.33,2.12,3.43 C39.55,74.45,98.84,74.62,98.84,74.62z" fill="#2F2F2F"/>
  <path d="M37.84,69.89c0.23,0.34,31.56,0.57,32.22,0.24c0.16-0.08,0.39-16.19,0.31-16.29 c-0.07-0.08-1-0.05-1.71-0.04c-4,0.05-14.4,0.52-19.28,3.84C43.69,61.51,37.51,69.4,37.84,69.89z" fill="#535456"/>
  <path d="M75.34,53.99c-0.12,0.18-0.1,16.51,0.02,16.55c0.24,0.08,20.8,0.24,21.12,0.08 c0.33-0.16,3.26-2.77,3.34-3.02s-3.89-7.63-9.54-10.52c-4.99-2.56-10.38-3.01-13.41-3.12C76.05,53.93,75.41,53.87,75.34,53.99z" fill="#535456"/>
  <path d="M38.33,76.08c0.39,0.74,12.15,0.57,12.97-0.33c0.56-0.62,0.69-7.13-0.16-7.83c-0.9-0.73-5-0.63-7.91-0.16 C40.69,68.17,37.59,74.7,38.33,76.08z"/>
  <path d="M55.95,47.15c0,0-0.58-5.82,1.2-7.07c0.81-0.57,2.82-0.54,5.63-0.6c2.91-0.06,5.87,0,5.87,0 l2.34,6.47l-2.73,1.19L55.95,47.15z" fill="#1064CB"/>
  <path d="M73.53,39.44c0,0,1.88-0.04,4.51,0.01c2.36,0.05,5.74-0.02,6.69,1.29c1.23,1.68,0.81,6.52,0.81,6.52 l-11.93-0.11l-2.39-4.51L73.53,39.44z" fill="#DC0D27"/>
  <polygon points="68.23,39.48 73.57,39.45 73.62,47.15 68.23,47.15 " fill="#C3CCC7"/>
  <path d="M59.89,87.74c-0.93,0.2-2.12,16.26,8.59,16c10.58-0.26,8.86-15.88,8.33-16.07 c-0.93-0.33-1.72,2.58-4.03,2.45c-1.91-0.11-3.41-2.85-4.47-2.79c-1.12,0.07-1.95,2.72-4.53,2.78 C61.94,90.17,60.82,87.55,59.89,87.74z" fill="#E3E4DE"/>
</svg>

<svg viewBox="0 0 128 128" xmlns="http://www.w3.org/2000/svg">
  <defs/>
  <path d="M26.84,69.43 C26.07,69.54 11.43,72.29 8.68,74.27 C5.93,76.25 4.7,78.25 4.15,81.22 C3.6,84.19 7.69,87.26 7.69,87.26 L37.85,90.12 L69.11,85.17 L114.9,89.02 L125.41,82.58 C125.41,82.58 125.02,75.08 122.38,72.77 C119.74,70.46 113.05,69.76 110.96,68.55 C108.87,67.34 103.88,57.85 97.62,52.69 C90.13,46.53 79.72,46.1 71.14,46.2 C61.56,46.31 55,47 52.36,47.99 C48.29,49.53 45.34,51.03 41.59,53.9 C35.85,58.3 26.84,69.43 26.84,69.43 Z" fill="#E3E3E1"/>
  <path d="M8.79,83.19 L3.95,82.97 C3.95,82.97 3.29,91.01 3.18,97.17 C3.07,103.44 2.85,106.2 5.49,108.62 C7.23,110.22 10.4,110.94 15.57,110.83 C20.74,110.72 117.11,111.27 119.54,111.16 C121.96,111.05 124.16,109.62 124.6,105.88 C125.04,102.14 125.59,87.94 125.59,87.94 L120.09,82.22 L8.79,83.19 Z" fill="#474C4F"/>
  <path d="M49.59,110.91 C49.59,110.91 49.43,92.73 32.54,93.02 C14.17,93.33 15.56,110.83 15.56,110.83 L49.59,110.91 Z" fill="#2F2F2F"/>
  <path d="M84.85,111.07 C84.85,111.07 85.14,92.52 102.21,93.12 C119.96,93.74 118.56,111.18 118.56,111.18 L84.85,111.07 Z" fill="#2F2F2F"/>
  <path d="M17.81,110.34 C17.9,115.86 22.3,123.8 31.88,123.86 C41.46,123.92 46.43,116.58 46.13,109.06 C45.82,101.42 39.88,96.02 31.33,96.26 C23.33,96.5 17.69,102.7 17.81,110.34 Z" fill="#4E433D"/>
  <path d="M24.48,109.88 C24.53,112.79 26.89,116.98 32.04,117.01 C37.19,117.04 39.68,113.39 39.52,109.43 C39.35,105.4 36.06,102.4 31.74,102.46 C27.44,102.53 24.41,105.85 24.48,109.88 Z" fill="#C8C8C8"/>
  <path d="M88.53,110.81 C88.62,116.29 92.92,124.17 102.3,124.23 C111.68,124.29 116.54,117.01 116.25,109.55 C115.95,101.96 110.14,96.61 101.77,96.85 C93.94,97.07 88.41,103.22 88.53,110.81 Z" fill="#4E433D"/>
  <path d="M94.79,110.37 C94.84,113.28 97.2,117.47 102.35,117.5 C107.5,117.53 109.99,113.88 109.83,109.92 C109.66,105.89 106.37,102.89 102.05,102.95 C97.76,103.02 94.73,106.34 94.79,110.37 Z" fill="#C8C8C8"/>
  <path d="M4.09,81.2 C4.09,81.2 14.1,80.53 14.62,81.32 C14.91,81.76 12.56,90.16 11.85,90.72 C10.54,91.77 3.21,94.04 3.21,94.04 C3.21,94.04 3.19,89.08 3.47,86.18 C3.77,83.21 4.09,81.2 4.09,81.2 Z" fill="#FDA431"/>
  <path d="M120.03,78.14 C119.51,78.66 119.85,81.19 120.03,84.61 C120.16,86.99 120.21,90.1 121.01,90.29 C121.8,90.47 125.65,90.41 125.65,90.41 C125.65,90.41 125.77,87.3 125.59,83.88 C125.42,80.64 124.86,78.08 124.86,78.08 C124.86,78.08 120.52,77.65 120.03,78.14 Z" fill="#FF2A23"/>
  <path d="M98.84,74.62 C99.33,74.38 105.04,68.99 105.12,68.42 C105.2,67.85 99.25,57.57 92.23,53.9 C85.22,50.23 80.41,49.91 72.51,49.67 C64.36,49.42 52.6,50.32 45.34,55.62 C39.82,59.65 32.62,69.48 31.64,70.79 C30.66,72.1 31.4,74.12 33.76,74.22 C39.55,74.45 98.84,74.62 98.84,74.62 Z" fill="#2F2F2F"/>
  <path d="M37.84,69.89 C38.07,70.23 69.4,70.46 70.06,70.13 C70.22,70.05 70.45,53.94 70.37,53.84 C70.3,53.76 69.37,53.79 68.66,53.8 C64.66,53.85 54.26,54.32 49.38,57.64 C43.69,61.51 37.51,69.4 37.84,69.89 Z" fill="#535456"/>
  <path d="M75.34,53.99 C75.22,54.17 75.24,70.5 75.36,70.54 C75.6,70.62 96.16,70.78 96.48,70.62 C96.81,70.46 99.74,67.85 99.82,67.6 C99.9,67.35 95.93,59.97 90.28,57.08 C85.29,54.52 79.9,54.07 76.87,53.96 C76.05,53.93 75.41,53.87 75.34,53.99 Z" fill="#535456"/>
  <path d="M38.33,76.08 C38.72,76.82 50.48,76.65 51.3,75.75 C51.86,75.13 51.99,68.62 51.14,67.92 C50.24,67.19 46.14,67.29 43.23,67.76 C40.69,68.17 37.59,74.7 38.33,76.08 Z"/>
  <path d="M55.95,47.15 C55.95,47.15 55.37,41.33 57.15,40.08 C57.96,39.51 59.97,39.54 62.78,39.48 C65.69,39.42 68.65,39.48 68.65,39.48 L70.99,45.95 L68.26,47.14 L55.95,47.15 Z" fill="#1064CB"/>
  <path d="M73.53,39.44 C73.53,39.44 75.41,39.4 78.04,39.45 C80.4,39.5 83.78,39.43 84.73,40.74 C85.96,42.42 85.54,47.26 85.54,47.26 L73.61,47.15 L71.22,42.64 L73.53,39.44 Z" fill="#DC0D27"/>
  <path d="M68.23,39.48 L73.57,39.45 L73.62,47.15 L68.23,47.15 Z" fill="#C3CCC7"/>
  <path d="M59.89,87.74 C58.96,87.94 57.77,104 68.48,103.74 C79.06,103.48 77.34,87.86 76.81,87.67 C75.88,87.34 75.09,90.25 72.78,90.12 C70.87,90.01 69.37,87.27 68.31,87.33 C67.19,87.4 66.36,90.05 63.78,90.11 C61.94,90.17 60.82,87.55 59.89,87.74 Z" fill="#E3E4DE"/>
</svg>
